build/images/lands/l-1-i1.svg

<svg width="433" height="353" viewBox="0 0 433 353" fill="none" xmlns="http://www.w3.org/2000/svg">
<g clip-path="url(#clip0)">
<path d="M238.079 59.2192L193.987 52.0578L204.434 24.0753C206.744 17.8821 203.725 15.0667 197.715 17.8134L145.501 41.6843L123.704 11.6147C120.573 7.29889 116.644 7.90733 114.965 12.9678L103.284 48.2279L46.2951 41.2664C39.736 40.466 37.71 44.0626 41.7843 49.2673L60.2107 72.7725L20.3432 92.9346C12.8449 96.7245 13.496 100.929 21.7903 102.28L65.8823 109.441L55.4349 137.424C53.1256 143.617 56.1444 146.432 62.1542 143.686L114.368 119.815L136.167 149.891C139.297 154.206 143.227 153.598 144.905 148.537L156.587 113.277L213.575 120.239C220.134 121.039 222.16 117.443 218.086 112.238L199.665 88.7256L239.526 68.5644C247.024 64.7745 246.373 60.5701 238.079 59.2192Z" fill="#171717"/>
<path fill-rule="evenodd" clip-rule="evenodd" d="M241.054 176.66V180.14V187.199C241.054 188.124 239.665 188.124 239.665 187.199V180.14C239.665 179.215 241.054 179.215 241.054 180.14C241.054 181.066 239.665 181.066 239.665 180.14V176.66H177.121L176.99 190.322H183.371V190.944C183.473 190.885 183.592 190.851 183.718 190.851H279.693L281.612 189.094V176.66H241.054ZM278.175 192.24H183.718C183.592 192.24 183.473 192.206 183.371 192.147V202.917H276.899L276.943 198.837V193.368L278.175 192.24ZM183.371 204.305V206.84H176.99L177.208 221.972C178.244 220.796 179.4 220.796 180.677 221.972C180.864 222.144 181.043 222.332 181.212 222.534H276.943L280.856 220.798V206.84H276.856L276.883 204.305H183.371ZM254.13 241.466L276.388 241.456L276.902 223.922H182.125C182.639 224.921 183.026 226.136 183.284 227.568V238.942L183.371 241.496L207.675 241.485V250.279L166.618 248.27C161.899 248.039 157.927 244.661 156.941 240.04C145.597 186.884 146.527 156.538 159.731 149.001C183.703 135.319 185.812 166.312 197.471 163.717C209.13 161.123 198.994 130.744 223.549 128.265C248.104 125.785 241.865 142.587 250.268 154.785C258.672 166.983 264.342 137.899 288.247 137.985C314.818 138.081 313.997 156.874 313.997 174.724L306.584 250.324C306.322 252.996 304.01 254.993 301.328 254.862L254.008 252.546L254.13 241.466ZM231.76 241.475L232.082 241.475C232.387 241.547 232.615 241.821 232.616 242.149L232.803 316.661L238.728 307.907C238.943 307.589 239.375 307.506 239.692 307.721C240.01 307.936 240.093 308.368 239.878 308.685L232.88 319.025L244.087 319.019C244.47 319.018 244.782 319.329 244.782 319.713C244.782 320.096 244.471 320.407 244.088 320.408L219.755 320.421C219.372 320.421 219.06 320.11 219.06 319.727C219.06 319.343 219.371 319.032 219.754 319.032L231.31 319.026L223.083 308.797C222.842 308.498 222.89 308.061 223.189 307.821C223.487 307.58 223.925 307.628 224.165 307.926L231.415 316.94L231.227 242.152C231.226 241.824 231.453 241.548 231.76 241.475ZM54.9763 136.722L66.2554 110.473L70.5871 108.807L61.2112 131.996L76.509 110.076C76.7284 109.761 77.1613 109.684 77.4758 109.903C77.7903 110.123 77.8673 110.556 77.6479 110.87L63.4087 131.274L86.1427 111.355C86.4312 111.102 86.8699 111.131 87.1226 111.42C87.3754 111.708 87.3464 112.147 87.058 112.4L63.2001 133.303L99.0873 107.534L120.365 152.591L71.9564 165.008C69.5289 168.894 68.0322 171.056 67.377 171.606C66.5612 172.29 65.6149 172.776 64.5823 172.912C63.2211 173.093 61.8628 172.64 60.5937 171.467C59.0375 170.028 58.2957 168.336 58.3956 166.444C56.4011 166.584 54.6107 165.934 53.0679 164.507C51.3839 162.95 50.6601 161.177 50.9495 159.253L48.0319 156.037C46.086 153.892 45.6755 150.765 47.0018 148.191C49.1025 144.113 51.2553 140.87 53.4658 138.46C54.0011 137.876 54.5046 137.297 54.9763 136.722ZM172.924 305.835L124.771 306.302L125.899 317.928H139.252C139.635 317.928 139.946 318.239 139.946 318.623C139.946 319.006 139.635 319.317 139.252 319.317H128.897C131 319.895 132.522 320.509 133.473 321.172C135.33 322.467 135.188 324.123 133.202 325.535C131.353 326.849 129.507 326.94 127.821 325.765C126.311 324.712 124.949 322.656 123.694 319.594L103.302 323.053C100.222 323.576 97.6449 325.683 96.5215 328.599L96.1469 329.571H162.864L179.052 315.345L172.924 305.835ZM123.377 306.315L107.287 306.471L97.4211 296.113L115.235 264.186C115.422 263.851 115.302 263.428 114.967 263.241C114.632 263.055 114.209 263.175 114.022 263.509L96.4182 295.06L96.4104 295.051L96.354 295.175L91.0642 304.655L82.2443 330.49C82.1483 330.771 81.8842 330.96 81.5871 330.96H0.69506C0.20756 330.96 -0.128189 330.471 0.0470872 330.016L0.785437 328.1C2.08505 324.727 5.06627 322.289 8.62999 321.684L27.0093 318.566C24.0059 317.702 21.9386 316.832 20.7831 315.933C18.996 314.543 19.2242 312.898 21.2822 311.591C23.1971 310.376 25.0448 310.381 26.6672 311.643C28.1131 312.768 29.3605 314.878 30.4499 317.976L39.2992 306.471H26.2611L55.7572 252.717C55.8138 252.781 55.8833 252.835 55.9641 252.876C56.3066 253.049 56.7241 252.911 56.8966 252.568L91.4661 183.94C91.6387 183.598 91.5009 183.18 91.1584 183.008C90.8158 182.835 90.3983 182.973 90.2258 183.316L55.6563 251.943C55.6166 252.022 55.5933 252.105 55.5852 252.188L37.8204 233.537L72.1742 165.359L105.049 165.724L139.389 165.359V201.062L123.755 235.252L171.54 301.469C171.709 301.511 171.858 301.616 171.954 301.766L173.617 304.346L174.679 305.818L174.566 305.819L180.544 315.095C180.73 315.384 180.677 315.766 180.418 315.993L163.584 330.787C163.457 330.899 163.294 330.96 163.125 330.96H95.1352C94.6477 330.96 94.312 330.471 94.4873 330.016L95.2256 328.1C96.5252 324.727 99.5064 322.289 103.07 321.684L121.449 318.566C118.446 317.702 116.378 316.832 115.223 315.933C113.436 314.543 113.664 312.898 115.722 311.591C117.637 310.376 119.484 310.381 121.107 311.643C122.331 312.596 123.413 314.254 124.377 316.62L123.377 306.315ZM88.9766 306.471H41.0514L32.2388 317.928H44.8123C45.1958 317.928 45.5067 318.239 45.5067 318.623C45.5067 319.006 45.1958 319.317 44.8123 319.317H34.457C36.5608 319.895 38.082 320.509 39.033 321.172C40.8904 322.467 40.7487 324.123 38.7619 325.535C36.9133 326.849 35.0678 326.94 33.3815 325.765C31.8714 324.712 30.5094 322.656 29.2542 319.594L8.86227 323.053C5.78176 323.576 3.20477 325.683 2.08138 328.599L1.70679 329.571H81.0905L88.9766 306.471ZM25.8145 312.739C24.6757 311.854 23.4658 311.85 22.0265 312.764C20.7302 313.587 20.6619 314.08 21.6359 314.837C22.7877 315.733 25.2024 316.675 28.8426 317.628C27.9124 315.209 26.8932 313.579 25.8145 312.739ZM34.1757 324.625C35.3593 325.45 36.5677 325.391 37.9572 324.403C39.2087 323.513 39.2511 323.017 38.2388 322.312C37.0417 321.477 34.581 320.663 30.8959 319.902C31.9514 322.269 33.0546 323.844 34.1757 324.625ZM120.254 312.739C119.115 311.854 117.905 311.85 116.466 312.764C115.17 313.587 115.101 314.08 116.076 314.837C117.227 315.733 119.642 316.675 123.282 317.628C122.352 315.209 121.333 313.579 120.254 312.739ZM128.615 324.625C129.799 325.45 131.007 325.391 132.397 324.403C133.648 323.513 133.691 323.017 132.678 322.312C131.481 321.477 129.021 320.663 125.335 319.902C126.391 322.269 127.494 323.844 128.615 324.625ZM207.675 294.33H179.619C175.461 294.33 171.967 291.203 171.509 287.07C170.912 281.68 172.608 277.471 176.599 274.442C185.051 268.027 189.427 276.924 192.859 276.038C196.29 275.152 191.472 263.886 197.504 260.111C203.536 256.337 205.132 263.942 207.435 267.822C207.517 267.959 207.597 268.079 207.675 268.183V294.33ZM253.701 280.278C253.986 280.231 254.281 280.001 254.604 279.532C256.876 276.234 258.45 269.77 264.398 272.978C270.347 276.186 271.271 286.405 274.656 287.158C278.04 287.911 283.829 276.933 292.164 282.386C296.65 285.32 297.561 290.178 294.898 296.959C293.67 300.085 290.651 302.14 287.293 302.135L253.46 302.09L253.701 280.278ZM95.4499 84.0898C95.9351 84.0064 96.3698 83.571 96.7703 82.6785C96.9273 82.3286 97.3382 82.1722 97.6881 82.3292C98.038 82.4862 98.1944 82.8971 98.0374 83.247C97.548 84.3376 96.9022 85.0592 96.1096 85.3496L101.412 95.4739C105.341 98.8688 108.915 99.4624 112.287 97.3551C115.795 95.1634 119.802 93.6673 124.304 92.8655L109.232 67.2159C108.988 66.8015 108.699 66.427 108.373 66.0962L101.505 69.5868L91.4229 71.7954C91.0594 73.1361 91.0412 74.5731 91.4132 75.9626C91.9241 75.5087 92.4855 75.1052 93.0967 74.7523C94.1291 74.1562 95.2156 73.7556 96.3531 73.5522C97.7689 73.2991 99.1217 74.2416 99.3748 75.6574C99.511 76.4193 99.3012 77.2024 98.8022 77.7942C98.0573 78.6777 97.1671 79.4183 96.1347 80.0143C95.1024 80.6103 94.0159 81.011 92.8783 81.2144C92.1546 81.3437 91.4474 81.1607 90.8951 80.7618C90.2122 81.8494 89.3111 83.2845 88.1917 85.0672L94.2688 83.0829C94.5911 82.9777 94.9422 83.1206 95.0995 83.4209L95.4499 84.0898ZM91.6063 79.5536C91.3965 78.9306 91.608 78.2404 92.1585 77.8964C92.809 77.4899 93.6864 77.7207 94.1183 78.4118C94.3018 78.7055 94.3753 79.0351 94.3493 79.3482C94.7195 79.1966 95.0831 79.0178 95.4403 78.8116C96.3345 78.2953 97.1002 77.6583 97.7404 76.8989C97.9733 76.6228 98.0712 76.2573 98.0076 75.9018C97.8895 75.2411 97.2582 74.8013 96.5975 74.9194C95.6198 75.0942 94.6853 75.4387 93.7911 75.955C92.8969 76.4713 92.1312 77.1083 91.491 77.8676C91.2581 78.1438 91.1602 78.5092 91.2238 78.8648C91.2732 79.1413 91.4125 79.3792 91.6063 79.5536ZM89.9908 79.5904C89.9319 79.4374 89.8866 79.2766 89.8566 79.1092C89.7308 78.4052 89.9003 77.6831 90.3205 77.1106C88.7274 72.7459 90.5726 67.769 94.8011 65.5543C95.4037 65.2387 96.0387 64.9894 96.695 64.8106L102.422 63.2508C105.521 62.4067 108.802 63.743 110.429 66.5123L126.014 93.0337C126.262 93.4571 126.005 93.9978 125.52 94.072C120.788 94.7951 116.624 96.2825 113.023 98.5329C109.056 101.012 104.796 100.278 100.401 96.4347C100.336 96.3782 100.282 96.3102 100.243 96.2342L94.1417 84.5854L86.7989 86.9829C86.1814 87.1845 85.6498 86.5036 85.9953 85.9535L89.9908 79.5904ZM104.472 82.9223C104.093 82.9823 103.737 82.7239 103.677 82.3451C103.617 81.9663 103.876 81.6106 104.254 81.5506C106.432 81.2056 107.918 79.1603 107.573 76.9823C107.228 74.8043 105.183 73.3183 103.005 73.6632C102.626 73.7232 102.271 73.4648 102.211 73.086C102.151 72.7072 102.409 72.3515 102.788 72.2915C105.723 71.8265 108.48 73.8294 108.945 76.765C109.41 79.7007 107.407 82.4574 104.472 82.9223ZM118.673 136.066C118.74 136.444 118.488 136.804 118.11 136.871C117.732 136.937 117.372 136.685 117.305 136.307L116.24 130.263C116.173 129.885 116.425 129.525 116.803 129.458C117.181 129.392 117.541 129.644 117.607 130.022L118.673 136.066ZM124.355 155.58C124.511 155.93 124.353 156.341 124.003 156.497C123.652 156.653 123.242 156.495 123.086 156.145C120.684 150.748 122.226 145.584 127.605 140.797C127.891 140.542 128.33 140.567 128.585 140.854C128.84 141.14 128.814 141.579 128.528 141.834C123.573 146.245 122.218 150.779 124.355 155.58ZM125.365 132.325C125.402 132.707 125.121 133.046 124.74 133.082C124.358 133.118 124.019 132.837 123.983 132.456L122.975 121.789C122.938 121.407 123.219 121.068 123.601 121.032C123.982 120.996 124.321 121.276 124.357 121.658L125.365 132.325ZM65.2805 142.906L52.3903 159.122C52.3876 159.125 52.3848 159.129 52.382 159.132C52.3796 159.15 52.3766 159.167 52.3729 159.184C52.0407 160.741 52.5655 162.151 54.0108 163.487C55.4669 164.834 57.1296 165.318 59.0656 164.96C59.2166 164.932 59.3615 164.954 59.4865 165.013L68.9624 151.822C69.1109 149.429 68.8641 147.563 68.2414 146.227C67.703 145.072 66.7195 143.962 65.2805 142.906ZM64.2497 141.971L61.7449 136.123C61.5691 135.713 61.2838 135.359 60.9203 135.1C59.8267 134.322 58.3092 134.577 57.5308 135.671C56.6569 136.899 55.643 138.141 54.4893 139.399C52.3706 141.709 50.2844 144.851 48.2364 148.827C47.1753 150.886 47.5038 153.388 49.0605 155.104L51.5921 157.894L64.2497 141.971ZM69.7688 153.08L60.1838 166.423C60.0814 166.566 59.9349 166.658 59.7763 166.694C59.7524 168.096 60.3312 169.332 61.5367 170.447C62.5076 171.345 63.4556 171.661 64.3997 171.536C65.1378 171.438 65.8545 171.07 66.4843 170.542C67.1458 169.987 69.3987 166.586 73.0548 160.573C72.9284 158.67 72.6542 157.275 72.2495 156.407C71.881 155.616 71.0518 154.499 69.7688 153.08ZM58.3506 138.711C57.9959 138.857 57.5901 138.687 57.4442 138.333C57.2982 137.978 57.4674 137.572 57.8221 137.426C59.516 136.729 60.9688 137.349 61.9637 139.124C62.9664 140.913 62.727 142.427 61.1945 143.337C60.8647 143.533 60.4387 143.424 60.2429 143.095C60.0471 142.765 60.1557 142.339 60.4855 142.143C61.3081 141.654 61.4141 140.984 60.7522 139.803C60.0826 138.608 59.3543 138.298 58.3506 138.711ZM63.2734 148.536C62.9188 148.682 62.513 148.513 62.367 148.158C62.2211 147.804 62.3903 147.398 62.7449 147.252C64.4389 146.555 65.8917 147.175 66.8866 148.95C67.8892 150.739 67.6499 152.253 66.1174 153.163C65.7876 153.359 65.3615 153.25 65.1657 152.92C64.97 152.591 65.0786 152.164 65.4083 151.969C66.231 151.48 66.3369 150.81 65.675 149.629C65.0054 148.434 64.2771 148.123 63.2734 148.536ZM68.2117 157.847C67.8571 157.993 67.4512 157.824 67.3053 157.469C67.1594 157.115 67.3286 156.709 67.6832 156.563C69.3772 155.866 70.83 156.486 71.8249 158.261C72.8275 160.05 72.5882 161.564 71.0556 162.474C70.7259 162.67 70.2998 162.561 70.104 162.231C69.9082 161.902 70.0169 161.475 70.3466 161.28C71.1693 160.791 71.2752 160.121 70.6133 158.94C69.9437 157.745 69.2154 157.434 68.2117 157.847ZM216.963 213.816C216.963 212.89 218.352 212.89 218.352 213.816V219.141C218.352 220.067 216.963 220.067 216.963 219.141V213.816V208.491C216.963 207.565 218.352 207.565 218.352 208.491V213.816C218.352 214.742 216.963 214.742 216.963 213.816Z" fill="white"/>
<path fill-rule="evenodd" clip-rule="evenodd" d="M91.5718 112.983L87.2055 112.215C87.2663 112.081 87.2912 111.967 87.2802 111.875C87.2595 111.702 87.2187 111.446 86.9714 111.292C86.6363 111.084 86.324 111.2 85.94 111.541C85.8559 111.615 85.7114 111.74 85.5065 111.916L77.7681 110.55C77.7796 110.419 77.7595 110.296 77.708 110.183C77.6843 110.13 77.655 110.082 77.6203 110.038L81.4994 101.993C82.3491 100.23 83.8567 98.8718 85.6979 98.2098L121.619 85.2949L142.799 94.662C144.785 95.54 146.338 97.1729 147.116 99.1995L171.325 162.25L140.874 168.282L137.032 165.741H71.4897L71.9573 165.004L108.738 155.608C110.333 156.84 111.918 157.942 113.236 158.69C118.439 161.642 125.826 164.218 129.281 160.97C130.807 159.536 132.161 157.507 133.345 154.883C134.497 152.327 134.869 149.488 134.415 146.722L129.872 119.077C129.632 117.622 128.258 116.635 126.802 116.875C126.212 116.972 125.671 117.264 125.267 117.705C124.637 118.392 124.081 119.501 123.601 121.032C122.903 119.487 121.084 118.799 119.539 119.497C119.217 119.642 118.922 119.842 118.668 120.087C118.135 120.602 117.73 121.159 117.451 121.758C116.726 123.316 116.442 125.917 116.597 129.559L107.191 123.919C107.045 123.832 106.891 123.773 106.733 123.742L99.0875 107.534L91.5718 112.983ZM177.122 204.305H284.234V207.951H177.122V218.888H284.234V222.534H177.122H173.823V204.305H177.122ZM280.856 190.896H173.823V187.292H280.856V176.66H173.823V173.057H280.856H284.234V190.938H280.856V190.896ZM183.371 194.497V192.24H284.234V194.497H230.938V200.66H284.234V202.917H183.371V200.66V194.497ZM276.943 227.568V242.151H212.016H179.378V238.505H205.94V227.568H179.378V223.922H276.943V227.568Z" fill="#1840F8"/>
</g>
<defs>
<clipPath id="clip0">
<rect width="433" height="353" fill="white"/>
</clipPath>
</defs>
</svg>

<svg width="433" height="353" fill="none" xmlns="http://www.w3.org/2000/svg"><g clip-path="url(#clip0)"><path d="M238.079 59.22l-44.092-7.162 10.447-27.983c2.31-6.193-.709-9.008-6.719-6.262l-52.214 23.871-21.797-30.07c-3.131-4.315-7.06-3.707-8.739 1.354l-11.681 35.26-56.989-6.962c-6.559-.8-8.585 2.797-4.51 8.001L60.21 72.772 20.343 92.935c-7.498 3.79-6.847 7.994 1.447 9.345l44.092 7.161-10.447 27.983c-2.31 6.193.71 9.008 6.72 6.262l52.213-23.871 21.799 30.076c3.13 4.315 7.06 3.707 8.738-1.354l11.682-35.26 56.988 6.962c6.559.8 8.585-2.796 4.511-8.001l-18.421-23.512 39.861-20.162c7.498-3.79 6.847-7.994-1.447-9.345z" fill="#171717"/><path fill-rule="evenodd" clip-rule="evenodd" d="M241.054 176.66v10.539c0 .925-1.389.925-1.389 0v-7.059c0-.925 1.389-.925 1.389 0 0 .926-1.389.926-1.389 0v-3.48h-62.544l-.131 13.662h6.381v.622a.692.692 0 01.347-.093h95.975l1.919-1.757V176.66h-40.558zm37.121 15.58h-94.457a.692.692 0 01-.347-.093v10.77h93.528l.044-4.08v-5.469l1.232-1.128zm-94.804 12.065v2.535h-6.381l.218 15.132c1.036-1.176 2.192-1.176 3.469 0 .187.172.366.36.535.562h95.731l3.913-1.736V206.84h-4l.027-2.535h-93.512zm70.759 37.161l22.258-.01.514-17.534h-94.777c.514.999.901 2.214 1.159 3.646v11.374l.087 2.554 24.304-.011v8.794l-41.057-2.009a10.415 10.415 0 01-9.677-8.23c-11.344-53.156-10.414-83.502 2.79-91.039 23.972-13.682 26.081 17.311 37.74 14.716 11.659-2.594 1.523-32.973 26.078-35.452 24.555-2.48 18.316 14.322 26.719 26.52 8.404 12.198 14.074-16.886 37.979-16.8 26.571.096 25.75 18.889 25.75 36.739l-7.413 75.6a5.035 5.035 0 01-5.256 4.538l-47.32-2.316.122-11.08zm-22.37.009h.322a.695.695 0 01.534.674l.187 74.512 5.925-8.754a.694.694 0 111.15.778l-6.998 10.34 11.207-.006a.694.694 0 11.001 1.389l-24.333.013a.695.695 0 01-.001-1.389l11.556-.006-8.227-10.229a.693.693 0 111.082-.871l7.25 9.014-.188-74.788a.694.694 0 01.533-.677zM54.976 136.722l11.28-26.249 4.331-1.666-9.376 23.189 15.298-21.92a.695.695 0 111.139.794l-14.24 20.404 22.735-19.919a.694.694 0 11.915 1.045L63.2 133.303l35.887-25.769 21.278 45.057-48.409 12.417c-2.427 3.886-3.924 6.048-4.579 6.598-.816.684-1.762 1.17-2.795 1.306-1.36.181-2.72-.272-3.988-1.445-1.556-1.439-2.298-3.131-2.198-5.023-1.995.14-3.785-.51-5.328-1.937-1.684-1.557-2.408-3.33-2.118-5.254l-2.918-3.216a6.944 6.944 0 01-1.03-7.846c2.1-4.078 4.253-7.321 6.464-9.731a41.979 41.979 0 001.51-1.738zm117.948 169.113l-48.153.467 1.128 11.626h13.353a.695.695 0 010 1.389h-10.355c2.103.578 3.625 1.192 4.576 1.855 1.857 1.295 1.715 2.951-.271 4.363-1.849 1.314-3.695 1.405-5.381.23-1.51-1.053-2.872-3.109-4.127-6.171l-20.392 3.459a8.854 8.854 0 00-6.78 5.546l-.375.972h66.717l16.188-14.226-6.128-9.51zm-49.547.48l-16.09.156-9.866-10.358 17.814-31.927a.694.694 0 10-1.213-.677L96.418 295.06l-.008-.009-.056.124-5.29 9.48-8.82 25.835a.695.695 0 01-.657.47H.695a.694.694 0 01-.648-.944l.738-1.916a10.244 10.244 0 017.845-6.416l18.38-3.118c-3.004-.864-5.071-1.734-6.227-2.633-1.787-1.39-1.559-3.035.5-4.342 1.914-1.215 3.762-1.21 5.384.052 1.446 1.125 2.693 3.235 3.783 6.333l8.85-11.505H26.26l29.496-53.754a.694.694 0 001.14-.149l34.57-68.628a.694.694 0 10-1.241-.624l-34.57 68.627a.695.695 0 00-.07.245L37.82 233.537l34.354-68.178 32.875.365 34.34-.365v35.703l-15.634 34.19 47.785 66.217a.689.689 0 01.414.297l1.663 2.58 1.062 1.472-.113.001 5.978 9.276a.694.694 0 01-.126.898l-16.834 14.794a.693.693 0 01-.459.173h-67.99a.694.694 0 01-.648-.944l.739-1.916a10.244 10.244 0 017.844-6.416l18.379-3.118c-3.003-.864-5.071-1.734-6.226-2.633-1.787-1.39-1.559-3.035.499-4.342 1.915-1.215 3.762-1.21 5.385.052 1.224.953 2.306 2.611 3.27 4.977l-1-10.305zm-34.4.156H41.05l-8.812 11.457h12.573a.695.695 0 010 1.389H34.457c2.104.578 3.625 1.192 4.576 1.855 1.857 1.295 1.716 2.951-.271 4.363-1.849 1.314-3.694 1.405-5.38.23-1.51-1.053-2.873-3.109-4.128-6.171l-20.392 3.459a8.854 8.854 0 00-6.78 5.546l-.375.972H81.09l7.886-23.1zm-63.163 6.268c-1.138-.885-2.348-.889-3.788.025-1.296.823-1.364 1.316-.39 2.073 1.152.896 3.566 1.838 7.207 2.791-.93-2.419-1.95-4.049-3.029-4.889zm8.362 11.886c1.183.825 2.392.766 3.781-.222 1.252-.89 1.294-1.386.282-2.091-1.197-.835-3.658-1.649-7.343-2.41 1.055 2.367 2.159 3.942 3.28 4.723zm86.078-11.886c-1.139-.885-2.349-.889-3.788.025-1.296.823-1.365 1.316-.39 2.073 1.151.896 3.566 1.838 7.206 2.791-.93-2.419-1.949-4.049-3.028-4.889zm8.361 11.886c1.184.825 2.392.766 3.782-.222 1.251-.89 1.294-1.386.281-2.091-1.197-.835-3.657-1.649-7.343-2.41 1.056 2.367 2.159 3.942 3.28 4.723zm79.06-30.295h-28.056a8.16 8.16 0 01-8.11-7.26c-.597-5.39 1.099-9.599 5.09-12.628 8.452-6.415 12.828 2.482 16.26 1.596 3.431-.886-1.387-12.152 4.645-15.927 6.032-3.774 7.628 3.831 9.931 7.711.082.137.162.257.24.361v26.147zm46.026-14.052c.285-.047.58-.277.903-.746 2.272-3.298 3.846-9.762 9.794-6.554 5.949 3.208 6.873 13.427 10.258 14.18 3.384.753 9.173-10.225 17.508-4.772 4.486 2.934 5.397 7.792 2.734 14.573a8.16 8.16 0 01-7.605 5.176l-33.833-.045.241-21.812zM95.45 84.09c.485-.084.92-.519 1.32-1.412a.694.694 0 111.267.569c-.489 1.09-1.135 1.812-1.927 2.103l5.302 10.124c3.929 3.395 7.503 3.988 10.875 1.881 3.508-2.192 7.515-3.688 12.017-4.49l-15.072-25.65a5.747 5.747 0 00-.859-1.119l-6.868 3.49-10.082 2.21a8.006 8.006 0 00-.01 4.167 10.178 10.178 0 011.684-1.21 9.993 9.993 0 013.256-1.2 2.604 2.604 0 012.45 4.241 9.991 9.991 0 01-2.668 2.22 9.993 9.993 0 01-3.257 1.2 2.597 2.597 0 01-1.983-.452l-2.703 4.305 6.077-1.984a.694.694 0 01.83.338l.35.669zm-3.844-4.536c-.21-.623.002-1.314.553-1.658.65-.406 1.527-.175 1.96.516.183.293.256.623.23.936a8.95 8.95 0 001.091-.536 8.604 8.604 0 002.3-1.913 1.215 1.215 0 00-1.142-1.98 8.604 8.604 0 00-2.807 1.036 8.606 8.606 0 00-2.3 1.913 1.215 1.215 0 00.115 1.686zm-1.615.036a2.604 2.604 0 01.33-2.48 9.415 9.415 0 014.48-11.556 9.418 9.418 0 011.894-.743l5.727-1.56a7.118 7.118 0 018.007 3.261l15.585 26.522a.695.695 0 01-.494 1.038c-4.732.723-8.896 2.21-12.497 4.46-3.967 2.48-8.227 1.746-12.622-2.097a.675.675 0 01-.158-.2l-6.101-11.65-7.343 2.398c-.618.201-1.15-.48-.804-1.03l3.996-6.363zm14.481 3.332a.695.695 0 01-.218-1.371 3.993 3.993 0 00-1.249-7.888.694.694 0 11-.217-1.371 5.382 5.382 0 011.684 10.63zm14.201 53.144a.694.694 0 11-1.368.241l-1.065-6.044a.694.694 0 111.367-.241l1.066 6.044zm5.682 19.514a.695.695 0 01-1.269.565c-2.402-5.397-.86-10.561 4.519-15.348a.693.693 0 11.923 1.037c-4.955 4.411-6.31 8.945-4.173 13.746zm1.01-23.255a.694.694 0 11-1.382.131l-1.008-10.667a.694.694 0 111.382-.131l1.008 10.667zm-60.084 10.581l-12.89 16.216-.009.01a.64.64 0 01-.01.052c-.331 1.557.194 2.967 1.639 4.303 1.456 1.347 3.119 1.831 5.055 1.473a.686.686 0 01.42.053l9.476-13.191c.149-2.393-.098-4.259-.72-5.595-.539-1.155-1.523-2.265-2.962-3.321zm-1.031-.935l-2.505-5.848a2.43 2.43 0 00-4.214-.452 39.002 39.002 0 01-3.042 3.728c-2.118 2.31-4.205 5.452-6.253 9.428a5.555 5.555 0 00.825 6.277l2.531 2.79 12.658-15.923zm5.519 11.109l-9.585 13.343a.686.686 0 01-.408.271c-.024 1.402.555 2.638 1.76 3.753.972.898 1.92 1.214 2.864 1.089.738-.098 1.454-.466 2.084-.994.662-.555 2.915-3.956 6.57-9.969-.126-1.903-.4-3.298-.805-4.166-.368-.791-1.197-1.908-2.48-3.327zM58.35 138.711a.695.695 0 01-.529-1.285c1.694-.697 3.147-.077 4.142 1.698 1.002 1.789.763 3.303-.77 4.213a.695.695 0 01-.709-1.194c.823-.489.93-1.159.267-2.34-.67-1.195-1.398-1.505-2.401-1.092zm4.922 9.825a.694.694 0 11-.528-1.284c1.694-.697 3.147-.077 4.142 1.698 1.002 1.789.763 3.303-.77 4.213a.694.694 0 01-.709-1.194c.823-.489.929-1.159.267-2.34-.67-1.195-1.398-1.506-2.402-1.093zm4.939 9.311a.694.694 0 11-.529-1.284c1.694-.697 3.147-.077 4.142 1.698 1.002 1.789.763 3.303-.77 4.213a.694.694 0 01-.708-1.194c.822-.489.928-1.159.266-2.34-.67-1.195-1.398-1.506-2.401-1.093zm148.751 55.969c0-.926 1.389-.926 1.389 0v5.325c0 .926-1.389.926-1.389 0v-10.65c0-.926 1.389-.926 1.389 0v5.325c0 .926-1.389.926-1.389 0z" fill="#fff"/><path fill-rule="evenodd" clip-rule="evenodd" d="M91.572 112.983l-4.367-.768a.663.663 0 00.075-.34c-.02-.173-.061-.429-.309-.583-.335-.208-.647-.092-1.031.249l-.433.375-7.739-1.366a.72.72 0 00-.148-.512l3.88-8.045a7.464 7.464 0 014.198-3.783l35.921-12.915 21.18 9.367a8.157 8.157 0 014.317 4.537l24.209 63.051-30.451 6.032-3.842-2.541H71.49l.467-.737 36.781-9.396c1.595 1.232 3.18 2.334 4.498 3.082 5.203 2.952 12.59 5.528 16.045 2.28 1.526-1.434 2.88-3.463 4.064-6.087a14.246 14.246 0 001.07-8.161l-4.543-27.645a2.672 2.672 0 00-4.605-1.372c-.63.687-1.186 1.796-1.666 3.327a3.071 3.071 0 00-4.933-.945 5.634 5.634 0 00-1.217 1.671c-.725 1.558-1.009 4.159-.854 7.801l-9.406-5.64a1.431 1.431 0 00-.458-.177l-7.645-16.208-7.516 5.449zm85.55 91.322h107.112v3.646H177.122v10.937h107.112v3.646H173.823v-18.229h3.299zm103.734-13.409H173.823v-3.604h107.033V176.66H173.823v-3.603h110.411v17.881h-3.378v-.042zm-97.485 3.601v-2.257h100.863v2.257h-53.296v6.163h53.296v2.257H183.371v-8.42zm93.572 33.071v14.583h-97.565v-3.646h26.562v-10.937h-26.562v-3.646h97.565v3.646z" fill="#1840F8"/></g><defs><clipPath id="clip0"><path fill="#fff" d="M0 0h433v353H0z"/></clipPath></defs></svg>
